public/assets/images/field-c06.svg

<svg width="18" height="18" viewBox="0 0 18 18" fill="none" xmlns="http://www.w3.org/2000/svg">
<path d="M11.2049 17.608L11.204 17.608C10.5403 17.6155 9.88169 17.4909 9.26656 17.2414C8.65165 16.9921 8.09245 16.623 7.62147 16.1556C7.6213 16.1554 7.62113 16.1553 7.62096 16.1551L1.70861 10.2427L1.70787 10.242C-0.340567 8.21063 -0.218552 4.75242 2.00063 2.53276C2.00079 2.5326 2.00095 2.53245 2.00111 2.53229L4.04763 0.508262L4.04763 0.508266L4.04883 0.507064C4.13011 0.425578 4.22667 0.360928 4.33297 0.316817L4.23716 0.0859078L4.33297 0.316817C4.43928 0.272706 4.55324 0.25 4.66833 0.25C4.78343 0.25 4.89739 0.272706 5.00369 0.316817L5.09951 0.0859078L5.00369 0.316817C5.11 0.360929 5.20655 0.425578 5.28783 0.507064L5.28785 0.507079L9.09485 4.32308L9.09528 4.32351C9.17677 4.40479 9.24142 4.50135 9.28553 4.60765C9.32964 4.71396 9.35234 4.82792 9.35234 4.94301C9.35234 5.0581 9.32964 5.17207 9.28553 5.27837C9.24145 5.38458 9.17687 5.48107 9.09548 5.56231C9.09542 5.56238 9.09535 5.56244 9.09528 5.56251L7.33174 7.31256L7.15346 7.48947L7.3312 7.66693L10.1977 10.5289L10.3745 10.7054L10.5511 10.5288L12.3013 8.77856C12.3014 8.77848 12.3015 8.77839 12.3016 8.7783C12.4656 8.61496 12.6876 8.52325 12.9191 8.52325C13.1505 8.52325 13.3726 8.61496 13.5366 8.77829C13.5366 8.77838 13.5367 8.77847 13.5368 8.77856L17.3568 12.5985C17.3569 12.5986 17.357 12.5987 17.3571 12.5988C17.5204 12.7628 17.6121 12.9848 17.6121 13.2163C17.6121 13.4477 17.5204 13.6697 17.3571 13.8337C17.357 13.8338 17.3569 13.8339 17.3568 13.834L15.3276 15.8632L15.3263 15.8645C14.2377 16.9687 12.7554 17.5958 11.2049 17.608ZM2.95162 9.00235L2.95242 9.00315L8.85642 14.9162L8.85656 14.9163C10.238 16.2977 12.589 16.1274 14.0926 14.6238L15.3211 13.3953L15.4968 13.2196L15.3222 13.0428L13.0992 10.7928L12.9226 10.6141L12.7448 10.7915L10.9943 12.5375L10.9938 12.538C10.9126 12.6194 10.816 12.6841 10.7097 12.7282C10.6034 12.7723 10.4894 12.795 10.3743 12.795C10.2592 12.795 10.1453 12.7723 10.039 12.7282C9.93267 12.6841 9.83611 12.6194 9.75483 12.538L9.75461 12.5377L5.29961 8.08273L5.29918 8.0823C5.21789 8.00141 5.15339 7.90526 5.10938 7.79937C5.06536 7.69348 5.0427 7.57994 5.0427 7.46526C5.0427 7.35059 5.06536 7.23704 5.10938 7.13115C5.15339 7.02526 5.21789 6.92911 5.29918 6.84822L5.29961 6.84779L7.05011 5.09729L7.22779 4.91961L7.04921 4.74284L4.82171 2.53784L4.64429 2.36221L4.46841 2.53938L3.24506 3.77173C3.24495 3.77184 3.24484 3.77195 3.24473 3.77206C1.74084 5.27626 1.57209 7.60809 2.95162 9.00235Z" fill="#4F66EE" stroke="white" stroke-width="0.5"/>
</svg>

<svg width="18" height="18" fill="none" xmlns="http://www.w3.org/2000/svg"><path d="M11.205 17.608h-.001a5.004 5.004 0 01-3.583-1.452s0 0 0 0l-5.912-5.913-.001-.001C-.341 8.211-.22 4.752 2 2.532c0 0 0 0 0 0L4.048.508h0a.875.875 0 01.285-.191L4.237.086l.096.23a.875.875 0 01.67 0L5.1.087l-.096.23a.875.875 0 01.284.191h0l3.807 3.816h0a.875.875 0 010 1.24s0 0 0 0l-1.763 1.75-.179.176.178.178 2.867 2.862.176.176.177-.176 1.75-1.75s0 0 0 0a.875.875 0 011.236 0l3.82 3.82s0 0 0 0a.875.875 0 010 1.235s0 0 0 0l-2.03 2.03h0a5.852 5.852 0 01-4.122 1.744zM2.952 9.002v.001l5.904 5.913h0c1.382 1.382 3.733 1.211 5.237-.292l1.228-1.229.176-.175-.175-.177-2.223-2.25-.176-.179-.178.177-1.75 1.746-.001.001a.875.875 0 01-1.24 0h0L5.3 8.083h0a.87.87 0 010-1.235h0l1.75-1.75.178-.178-.179-.177-2.227-2.205-.178-.176-.176.177-1.223 1.233s0 0 0 0c-1.504 1.504-1.673 3.836-.293 5.23z" fill="#4F66EE" stroke="#fff" stroke-width=".5"/></svg>
